images/facebook.svg

<svg width="25" height="24" viewBox="0 0 25 24" fill="none" xmlns="http://www.w3.org/2000/svg">
<path d="M22.7752 0H1.42522C0.69322 0 0.10022 0.593 0.10022 1.325V22.676C0.10022 23.407 0.69322 24 1.42522 24H12.9202V14.706H9.79222V11.084H12.9202V8.413C12.9202 5.313 14.8132 3.625 17.5792 3.625C18.9042 3.625 20.0422 3.724 20.3742 3.768V7.008L18.4562 7.009C16.9522 7.009 16.6612 7.724 16.6612 8.772V11.085H20.2482L19.7812 14.707H16.6612V24H22.7772C23.5072 24 24.1002 23.407 24.1002 22.675V1.325C24.1002 0.593 23.5072 0 22.7752 0Z" fill="#FEFCF7"/>
</svg>

<svg width="25" height="24" fill="none" xmlns="http://www.w3.org/2000/svg"><path d="M22.775 0H1.425C.693 0 .1.593.1 1.325v21.351C.1 23.407.693 24 1.425 24H12.92v-9.294H9.792v-3.622h3.128V8.413c0-3.1 1.893-4.788 4.66-4.788 1.324 0 2.462.099 2.794.143v3.24l-1.918.001c-1.504 0-1.795.715-1.795 1.763v2.313h3.587l-.467 3.622h-3.12V24h6.116c.73 0 1.323-.593 1.323-1.325V1.325C24.1.593 23.507 0 22.775 0Z" fill="#FEFCF7"/></svg>
